rospo-icon-theme-classic-common/32x32/apps/nsight.svg

<svg height="32" width="32" xmlns="http://www.w3.org/2000/svg"><rect height="24" opacity=".2" rx="12" transform="matrix(0 -1 -1 0 0 0)" width="24" x="-29" y="-28"/><rect fill="#4ca341" height="24" rx="12" transform="matrix(0 -1 -1 0 0 0)" width="24" x="-28" y="-28"/><path d="m16 4c-6.648 0-12 5.352-12 12 0 .168838.018553.3329.0253906.5.2623937-6.412456 5.4954474-11.5 11.9746094-11.5s11.712216 5.087544 11.974609 11.5c.006838-.1671.025391-.331162.025391-.5 0-6.648-5.352-12-12-12z" fill="#fff" opacity=".2"/><path d="m16 3a14 14 0 0 0 -6.5 1.609375 14 14 0 0 1 7.5 12.390625 14 14 0 0 1 -7.5 12.390625 14 14 0 0 0 6.5 1.609375 14 14 0 0 0 14-14 14 14 0 0 0 -14-14z" opacity=".2"/><path d="m16 2a14 14 0 0 0 -6.5 1.609375 14 14 0 0 1 7.5 12.390625 14 14 0 0 1 -7.5 12.390625 14 14 0 0 0 6.5 1.609375 14 14 0 0 0 14-14 14 14 0 0 0 -14-14z" fill="#e4e4e4"/><path d="m16 2a14 14 0 0 0 -6.5 1.609375 14 14 0 0 1  .939453.5546875 14 14 0 0 1 5.560547-1.1640625 14 14 0 0 1 13.978516 13.585938 14 14 0 0 0  .021484-.585938 14 14 0 0 0 -14-14zm .976562 14.470703a14 14 0 0 1 -7.476562 11.919922 14 14 0 0 0  .958984.443359 14 14 0 0 0 6.541016-11.833984 14 14 0 0 0 -.023438-.529297z" fill="#fff" opacity=".2"/></svg>

<svg xmlns="http://www.w3.org/2000/svg" width="32" height="32" version="1">
 <rect style="opacity:0.2" width="24" height="24" x="-29" y="-28" rx="12" ry="12" transform="matrix(0,-1,-1,0,0,0)"/>
 <rect width="24" height="24" x="-28" y="-28" rx="12" ry="12" transform="matrix(0,-1,-1,0,0,0)" style="fill:#4ca341"/>
 <path style="fill:#ffffff;opacity:0.2" d="M 16 4 C 9.352 4 4 9.352 4 16 C 4 16.168838 4.018553 16.3329 4.0253906 16.5 C 4.2877843 10.087544 9.520838 5 16 5 C 22.479162 5 27.712216 10.087544 27.974609 16.5 C 27.981447 16.3329 28 16.168838 28 16 C 28 9.352 22.648 4 16 4 z"/>
 <path d="M 16,3 A 14,14 0 0 0 9.5,4.609375 14,14 0 0 1 17,17 14,14 0 0 1 9.5,29.390625 14,14 0 0 0 16,31 14,14 0 0 0 30,17 14,14 0 0 0 16,3 Z" style="opacity:0.2"/>
 <path style="fill:#cccccc" d="M 16 2 A 14 14 0 0 0 9.5 3.609375 A 14 14 0 0 1 17 16 A 14 14 0 0 1 9.5 28.390625 A 14 14 0 0 0 16 30 A 14 14 0 0 0 30 16 A 14 14 0 0 0 16 2 z"/>
 <path style="opacity:0.2;fill:#ffffff" d="M 16 2 A 14 14 0 0 0 9.5 3.609375 A 14 14 0 0 1 10.439453 4.1640625 A 14 14 0 0 1 16 3 A 14 14 0 0 1 29.978516 16.585938 A 14 14 0 0 0 30 16 A 14 14 0 0 0 16 2 z M 16.976562 16.470703 A 14 14 0 0 1 9.5 28.390625 A 14 14 0 0 0 10.458984 28.833984 A 14 14 0 0 0 17 17 A 14 14 0 0 0 16.976562 16.470703 z"/>
</svg>
